X:1
T:Pirates
T:Lullaby
T:A favorite BALLAD in the Opera of the PIRATES
T:Stephen Storace
T:James Cobb
T:Published by I. Young,, [between 1792 and 1793] - Library of Congress, Music Division
C:Stephen Storace
Z:Published by I. Young,, [between 1792 and 1793] - Library of Congress, Music Division
%%score { ( 1 4 ) | ( 2 3 ) } ( 5 6 ) ( 7 8 )
L:1/8
M:6/8
K:D
V:1 treble nm="Piano"
V:4 treble 
V:2 bass 
V:3 bass 
V:5 treble nm="Mezzosoprano" snm="Mzs."
V:6 treble 
V:7 bass nm="Basso" snm="B."
V:8 bass 
V:1
 d2 f | afd B2 d | A2 G A>Bc | d2{ef} a [df]2 [ce] | d3 d>ef | e/d/ c2 dBG | AF(D ceg | %7
w: |||||||
 fdB) [DFA]2 [CFA] | [DF]2 z FAF | F2 z d2 f | (af) d B2 d | A2 F (A>B) c | d2 e (fe) d | %13
w: ||* Peace\- ful|flum' * bring on the|O\- cea, Sai _ lors|fear no dan\- _ ger|
{!fermata!d} !fermata!e2 A d2 f | (af) d B>c d | A2 F (A>B) c | d2{ef} g f2 e | d3 d/ e/ f2 | %18
w: nigh, the winds &|waves * in gen\- _ tle|mo\- tion, Soo thes them|with its Lul\- la\-|by, lul\- la\- by|
 e/ c/ A2 d/ B/ G2 | A/ F/ D2 (ce) g | (fd) B [FA]2 [FA] | F2 d (ceg | fdB) [DFA]2 [CEA] | %23
w: lul\- la\- by lul\- la\- by|lul\- la\- by, Sooths * them|with * its Lul\- la\-|by * * * *||
 [DF]2 z!D.C.! |] z6 | z2 | z4 | z6 | z6 | z3 |] %30
w: |||||||
V:2
"^Soave" z2 z | F,3 G,3 | F,3- F,2 G, | A,2 B, A,2 A,, | z2 z [F,D]3 | [A,C]3 [G,B,]3 | %6
 A,3 A,2 A, | [F,A,]2 G,2 A,2 | D,3 A,,3 | D,2 z z2 z | F,3 G,3 | F,3 F,>G,E, | F,2 A, A,2 ^G, | %13
 B,2 z z2 z | F,3 G,3 | F,3- F,2 G, | A,2 B, A,2 A,, | z2 z [F,D]3 | [A,C]3 [G,B,]3 | %19
 [F,A,]3 [G,A,]2 [E,A,] | [F,A,]2 B, D2 C | D,2 A, [G,A,]2 A, | [F,A,]2 G, A,2 A,, | D,2 z |] z6 | %25
 z2 | z4 | z6 | z6 | z3 |] %30
V:3
 x3 | D,6 | D,3 D,2 E, | F,2 G, z2 z | D,6 | D,6 | [D,F,]3 E,2 [C,E,] | D,2 z z2 A,, | x6 | x6 | %10
 D,6 | D,6 | D,2 C, D,C,B,, | !fermata!A,,2 x4 | D,6 | D,3- D,2 E, | F,2 G, x3 | D,6 | D,6 | %19
 D,3 E,2 C, | D,2 G, A,2 A, | x2 F, E,2 [C,E,] | D,2 x4 | x3 |] x6 | x2 | x4 | x6 | x6 | x3 |] %30
V:4
 x3 | x6 | x6 | x6 | x6 | x6 | x6 | x6 | x3 D2 C | D2 x4 | x6 | x6 | x6 | x6 | x6 | x6 | x3 d2 c | %17
 x6 | x6 | x6 | x6 | D2 x4 | x6 | x3 |] x6 | x2 | x4 | x6 | x6 | x3 |] %30
V:5
 z2 z | z6 | z6 | z6 | z6 | z6 | z6 | z6 | z6 | z6 | z6 | z6 | z6 | z6 | z6 | z6 | z6 | z6 | z6 | %19
w: |||||||||||||||||||
 z6 | z6 | z6 | z6 | z3 |] z6 | z2 | z!pp! FA [CE]/4F/4G/4F/4 | F2 d (ceg | fdB) [DFA]2 [CEA] | %29
w: |||||||Lul\- _ _ _ la\- _|by * * * *||
 [DF]2 z |] %30
w: |
V:6
 x3 | x6 | x6 | x6 | x6 | x6 | x6 | x6 | x6 | x6 | x6 | x6 | x6 | x6 | x6 | x6 | x6 | x6 | x6 | %19
 x6 | x6 | x6 | x6 | x3 |] x6 | x2 | x D x2 | D2 x4 | x6 | x3 |] %30
V:7
 z2 z | z6 | z6 | z6 | z6 | z6 | z6 | z6 | z6 | z6 | z6 | z6 | z6 | z6 | z6 | z6 | z6 | z6 | z6 | %19
 z6 | z6 | z6 | z6 | z3 |] z6 | z2 | A,, z2 z | D,2 A, [G,A,]2 A, | [F,A,]2 G, A,2 A,, | D,2 z |] %30
V:8
 x3 | x6 | x6 | x6 | x6 | x6 | x6 | x6 | x6 | x6 | x6 | x6 | x6 | x6 | x6 | x6 | x6 | x6 | x6 | %19
 x6 | x6 | x6 | x6 | x3 |] x6 | x2 | x4 | x2 F, E,2 [C,E,] | D,2 x4 | x3 |] %30

